static/assets/img/icons/theme/navigation/arrow-to-left.svg

<svg height="24" viewBox="0 0 24 24" width="24" xmlns="http://www.w3.org/2000/svg"><g fill="none" fill-rule="evenodd"><path d="m0 0h24v24h-24z" opacity="0"/><g fill="#000"><rect height="14" opacity=".3" rx="1" transform="matrix(0 -1 -1 0 26 26)" width="2" x="13" y="5"/><rect height="18" opacity=".3" rx="1" width="2" x="3" y="3"/><path d="m5.7071045 15.7071045c-.3905243.3905243-1.02368928.3905243-1.41421357 0s-.39052429-1.0236893 0-1.4142136l5.99999997-5.99999997c.378579-.37857893.9881654-.39182456 1.3828314-.03004736l6 5.50000003c.407119.3731924.434622 1.0057598.0614296 1.4128787-.3731925.407119-1.0057598.434622-1.4128788.0614296l-5.2941996-4.8530164z" fill-rule="nonzero" transform="matrix(0 -1 1 0 -.999996 22.999998)"/></g></g></svg>

<svg width="24px" height="24px" viewBox="0 0 24 24" version="1.1" xmlns="http://www.w3.org/2000/svg" xmlns:xlink="http://www.w3.org/1999/xlink">
    <title>Icon For Arrow-to-left</title>
    <g stroke="none" stroke-width="1" fill="none" fill-rule="evenodd">
        <polygon points="0 0 24 0 24 24 0 24" opacity="0"></polygon>
        <rect fill="#000000" opacity="0.3" transform="translate(14.000000, 12.000000) scale(-1, 1) rotate(-90.000000) translate(-14.000000, -12.000000) " x="13" y="5" width="2" height="14" rx="1"></rect>
        <rect fill="#000000" opacity="0.3" x="3" y="3" width="2" height="18" rx="1"></rect>
        <path d="M5.7071045,15.7071045 C5.3165802,16.0976288 4.68341522,16.0976288 4.29289093,15.7071045 C3.90236664,15.3165802 3.90236664,14.6834152 4.29289093,14.2928909 L10.2928909,8.29289093 C10.6714699,7.914312 11.2810563,7.90106637 11.6757223,8.26284357 L17.6757223,13.7628436 C18.0828413,14.136036 18.1103443,14.7686034 17.7371519,15.1757223 C17.3639594,15.5828413 16.7313921,15.6103443 16.3242731,15.2371519 L11.0300735,10.3841355 L5.7071045,15.7071045 Z" fill="#000000" fill-rule="nonzero" transform="translate(11.000001, 11.999997) scale(-1, -1) rotate(90.000000) translate(-11.000001, -11.999997) "></path>
    </g>
</svg>
